core/img/actions/verify.svg

<svg width="16" height="16" version="1.1" viewbox="0 0 16 16" xmlns="http://www.w3.org/2000/svg"><path d="m8 0a3 3 0 0 0-2.828 2 3 3 0 0 0-0.172-0 3 3 0 0 0-3 3 3 3 0 0 0 0 0.172 3 3 0 0 0-2 2.828 3 3 0 0 0 2 2.828 3 3 0 0 0-0 0.172 3 3 0 0 0 3 3 3 3 0 0 0 0.172-0 3 3 0 0 0 2.828 2 3 3 0 0 0 2.828-2.01 3 3 0 0 0 0.172 0.01 3 3 0 0 0 3-3 3 3 0 0 0-0-0.172 3 3 0 0 0 2-2.828 3 3 0 0 0-2.01-2.828 3 3 0 0 0 0.01-0.172 3 3 0 0 0-3-3 3 3 0 0 0-0.172 0 3 3 0 0 0-2.828-2zm2.934 4.5625 1.433 1.4336-5.7772 5.7789-2.9511-2.9508 1.414-1.414 1.5371 1.5351 4.3442-4.3828z" fill="#969696"/></svg>

<svg xmlns="http://www.w3.org/2000/svg" width="16" height="16"><path fill="#969696" d="M8 0a3 3 0 0 0-2.828 2A3 3 0 0 0 5 2a3 3 0 0 0-3 3 3 3 0 0 0 0 .172A3 3 0 0 0 0 8a3 3 0 0 0 2 2.828A3 3 0 0 0 2 11a3 3 0 0 0 3 3 3 3 0 0 0 .172 0A3 3 0 0 0 8 16a3 3 0 0 0 2.828-2.01A3 3 0 0 0 11 14a3 3 0 0 0 3-3 3 3 0 0 0 0-.172A3 3 0 0 0 16 8a3 3 0 0 0-2.01-2.828A3 3 0 0 0 14 5a3 3 0 0 0-3-3 3 3 0 0 0-.172 0A3 3 0 0 0 8 0zm2.934 4.563 1.433 1.433-5.777 5.779-2.951-2.95L5.053 7.41 6.59 8.945l4.344-4.382z"/></svg>
